X: 0962
T: BONAPARTE'S GRAND MARCH
B: Oliver Ditson "The Boston Collection of Instrumental Music" 1910 p.96 #2
F: http://conquest.imslp.info/files/imglnks/usimg/8/8f/IMSLP175643-PMLP309456-bostoncollection00bost_bw.pdf
%: 2012 John Chambers <jc:trillian.mit.edu>
M: 4/4
L: 1/8
K: D
A>A |\
d2A>A e2A>A | f2f>g a2a>g | f2f2 e2e2 | f>ga>f d2A>A |\
d2A>A e2A>A | f2f>g a2a>g | f2f2 e>de>f | d2d>d d2 :|
|: f>f |\
a2f>f a2f>f | a>gb>a g2e>e | g2e>e g2e>e | g>fa>f d2e>e |\
f2a>a bagf | e2e>e e2A>A |
d2A>A e2A>A | f2f>g a2a>g | f2f2 e>de>f | d2d>d d2zb |\
a2d>d d2zb | a2d>d d2zb | (3aga (3bag f2e2 | d2d>d d2 :|

%%text page 97: ISSUE "S" MISSING NOT AVAILABLE pgs 97-98

%%text page 98: ISSUE "S" MISSING NOT AVAILABLE pgs 97-98

%%sep 1 1 500
%%sep 1 1 500
